X: 1
T: Currach The
M: 6/8
L: 1/8
R: jig
K: Bmin
B3FBF|DFBd2f|fec BAF|EAc fed|
B/c/dB F3|DFBd2f|fec Ace|aec B2A:|
|:B,3DFB|dfd ecA|A,3B,A,C|EAc ecA|
B/c/dB F3|DFBd2f|fec Ace|aec B2A:|
